X:61
T:Li coco
O:France
A:Provence
C:Trad.
R:Danse trad.
Z:Transcrit et/ou corrig par Michel BELLON - 2005-03-06
Z:Pour toute observation mailto:galouvielle@free.fr
M:2/4
L:1/8
K:Bb
GABc | d2gz | dedc | B2Gz | GABc | dc de | dc BA | G2gz | 
BABd | c2B2 | BABd | c2fz | GABc | dcde | dcBA | G2gz |]
G/A/B/A/ G/A/B/c/ | d2d2 | G/A/B/A/ G/A/B/c/ | d2d2 | d/e/d/c/ BA | c2A2 | d/e/d/c/ BA | A2z2 :: \
%%footer $D   Galouvielle-MBe 2008 \nDanse trad. (France)
